src/scalable/places/folder-trash.svg

<?xml version="1.0" encoding="UTF-8"?>
<svg xmlns="http://www.w3.org/2000/svg" viewBox="0 0 64 64">
 <defs>
  <linearGradient id="a">
   <stop offset="0"/>
   <stop stop-opacity="0" offset="1"/>
  </linearGradient>
  <linearGradient id="b" x1="31" x2="31" y1="1005.4" y2="1003.4" gradientTransform="matrix(.92593 0 0 1 2.37 -988.4)" gradientUnits="userSpaceOnUse" xlink:href="#a"/>
  <radialGradient id="d" cx="32" cy="1021.9" r="25" gradientTransform="matrix(-1 0 0 -.08 64 137.7)" gradientUnits="userSpaceOnUse" xlink:href="#a"/>
 </defs>
 <path style="fill:#3bad7e" d="M13 8c-1.108 0-2 .892-2 2H9c-.99 0-2 .892-2 2v5H6c-1.108 0-2 .892-2 2v35c0 1.108.892 2 2 2h52c1.108 0 2-.892 2-2V19c0-1.108-.892-2-2-2h-1v-5c0-1.108-1.01-2-2-2H31c0-1.108-.892-2-2-2z"/>
 <path d="M13 8c-1.108 0-2 .892-2 2H9c-.99 0-2 .892-2 2v5h50v-5c0-1.108-1.01-2-2-2H31c0-1.108-.892-2-2-2z" opacity=".2"/>
 <path d="M11 12c-1.108 0-2 .892-2 2v3h46v-3c0-1.108-.892-2-2-2z" opacity=".06"/>
 <path d="M11 13c-.554 0-1 .446-1 1v3h44v-3c0-.554-.446-1-1-1z" fill="#fff"/>
 <rect x="7" y="15" width="50" height="2" ry="0" fill="url(#b)" opacity=".1"/>
 <rect x="7" y="56" width="50" height="5" ry="0" fill="url(#d)" opacity=".1"/>
 <path d="M6 17c-1.108 0-2 .892-2 2v1c0-1.108.892-2 2-2h52c1.108 0 2 .892 2 2v-1c0-1.108-.892-2-2-2zM13 8c-1.108 0-2 .892-2 2H9c-.99 0-2 .892-2 2v1c0-1.108 1.01-2 2-2h2c0-1.108.892-2 2-2h16c1.108 0 2 .892 2 2h24c.99 0 2 .892 2 2v-1c0-1.108-1.01-2-2-2H31c0-1.108-.892-2-2-2z" fill="#fff" opacity=".15"/>
 <path d="M6 56c-1.108 0-2-.892-2-2v-1c0 1.108.892 2 2 2h52c1.108 0 2-.892 2-2v1c0 1.108-.892 2-2 2z" opacity=".15"/>
 <path style="fill:#ffffff" d="M 30.009766 25.875 C 30.614328 26.126965 31.118789 26.582608 31.496094 27.236328 L 34.189453 31.919922 L 32.503906 32.875 L 37.966797 32.953125 L 40.636719 28.166016 L 38.976562 29.150391 L 37.439453 26.53125 C 37.186715 26.102729 36.759196 25.875 36.205078 25.875 L 30.009766 25.875 z M 28.576172 26.101562 C 27.620042 26.101563 26.837311 26.5549 26.359375 27.386719 L 24.068359 31.339844 L 28.876953 34.134766 L 31.849609 28.998047 L 30.992188 27.5625 C 30.413619 26.581663 29.608225 26.101562 28.576172 26.101562 z M 41.164062 33 L 36.355469 35.744141 L 39.326172 40.882812 L 40.988281 40.882812 C 41.515632 40.882813 42.045494 40.755284 42.423828 40.552734 C 43.228624 40.10002 43.808594 39.143043 43.808594 38.236328 C 43.808594 37.8 43.682336 37.356167 43.455078 36.953125 L 41.164062 33 z M 25.681641 34.160156 L 20.191406 34.263672 L 21.878906 35.21875 L 20.367188 37.863281 C 20.266553 38.039322 20.191406 38.315712 20.191406 38.542969 C 20.191406 38.76997 20.266299 39.021739 20.367188 39.197266 L 23.515625 44.609375 C 23.490915 44.433848 23.490234 44.308584 23.490234 44.208984 C 23.490234 43.780206 23.691651 43.098683 23.943359 42.646484 L 23.941406 42.646484 L 26.636719 37.988281 L 28.349609 38.970703 L 25.681641 34.160156 z M 35.648438 39.521484 L 32.830078 44.230469 L 35.648438 48.939453 L 35.648438 47 L 38.595703 47 C 39.124341 47 39.576418 46.748061 39.828125 46.320312 L 42.951172 40.882812 C 42.422791 41.284824 41.793672 41.486328 41.039062 41.486328 L 35.648438 41.486328 L 35.648438 39.521484 z M 25.326172 41.4375 L 24.521484 42.871094 C 24.269776 43.298843 24.09375 43.979771 24.09375 44.4 C 24.09375 45.817907 25.275842 47.001953 26.710938 47.001953 L 31.294922 47.001953 L 31.294922 41.4375 L 25.326172 41.4375 z " class="ColorScheme-Text"/>
</svg>

<svg xmlns="http://www.w3.org/2000/svg" xmlns:xlink="http://www.w3.org/1999/xlink" width="64" height="64"><defs><linearGradient id="a"><stop offset="0"/><stop offset="1" stop-opacity="0"/></linearGradient><linearGradient xlink:href="#a" id="b" x1="31" x2="31" y1="1005.4" y2="1003.4" gradientTransform="matrix(.92593 0 0 1 2.37 -988.4)" gradientUnits="userSpaceOnUse"/></defs><path d="M13 8c-1.108 0-2 .892-2 2H9c-.99 0-2 .892-2 2v5H6c-1.108 0-2 .892-2 2v35c0 1.108.892 2 2 2h52c1.108 0 2-.892 2-2V19c0-1.108-.892-2-2-2h-1v-5c0-1.108-1.01-2-2-2H31c0-1.108-.892-2-2-2z" style="fill:#3bad7e"/><path d="M13 8c-1.108 0-2 .892-2 2H9c-.99 0-2 .892-2 2v5h50v-5c0-1.108-1.01-2-2-2H31c0-1.108-.892-2-2-2z" opacity=".2"/><path d="M11 12c-1.108 0-2 .892-2 2v3h46v-3c0-1.108-.892-2-2-2z" opacity=".06"/><path fill="#fff" d="M11 13c-.554 0-1 .446-1 1v3h44v-3c0-.554-.446-1-1-1z"/><rect width="50" height="2" x="7" y="15" fill="url(#b)" opacity=".1" ry="0"/><rect width="50" height="5" x="7" y="56" fill="url(#d)" opacity=".1" ry="0"/><path fill="#fff" d="M6 17c-1.108 0-2 .892-2 2v1c0-1.108.892-2 2-2h52c1.108 0 2 .892 2 2v-1c0-1.108-.892-2-2-2zm7-9c-1.108 0-2 .892-2 2H9c-.99 0-2 .892-2 2v1c0-1.108 1.01-2 2-2h2c0-1.108.892-2 2-2h16c1.108 0 2 .892 2 2h24c.99 0 2 .892 2 2v-1c0-1.108-1.01-2-2-2H31c0-1.108-.892-2-2-2z" opacity=".15"/><path d="M6 56c-1.108 0-2-.892-2-2v-1c0 1.108.892 2 2 2h52c1.108 0 2-.892 2-2v1c0 1.108-.892 2-2 2z" opacity=".15"/><path d="M30.01 25.875c.604.252 1.109.708 1.486 1.361l2.693 4.684-1.685.955 5.463.078 2.67-4.787-1.66.984-1.538-2.619c-.252-.428-.68-.656-1.234-.656zm-1.434.227c-.956 0-1.739.453-2.217 1.285l-2.29 3.953 4.808 2.795 2.973-5.137-.858-1.436c-.578-.98-1.384-1.46-2.416-1.46M41.164 33l-4.809 2.744 2.971 5.139h1.662c.528 0 1.057-.128 1.436-.33.805-.453 1.385-1.41 1.385-2.317 0-.436-.127-.88-.354-1.283zm-15.482 1.16-5.49.104 1.687.955-1.512 2.644a1.5 1.5 0 0 0-.176.68c0 .227.075.479.176.654l3.149 5.412a3 3 0 0 1-.026-.4c0-.429.202-1.11.453-1.563h-.002l2.696-4.658 1.713.983zm9.966 5.361-2.818 4.71 2.818 4.708V47h2.948c.528 0 .98-.252 1.232-.68l3.123-5.437c-.528.402-1.157.603-1.912.603h-5.39zm-10.322 1.916-.805 1.434c-.251.428-.427 1.109-.427 1.529 0 1.418 1.182 2.602 2.617 2.602h4.584v-5.565z" class="ColorScheme-Text" style="fill:#fff"/></svg>
